static/assets/svg/human/humanClothes/tails/tail4.svg

<svg class="tails" width="86" height="380" viewBox="202.715 584.407 163.348 380.048" xmlns="http://www.w3.org/2000/svg"><path d="M272.609 769.751c18.803 0 40.604-3.081 56.789 13.105 3.725 3.725 3.42 13.706 5.616 18.097 2.706 5.411 3.759 13.7 1.248 18.722-3.326 6.652-5.888 15.249-11.857 21.218-3.074 3.074-18.699-.023-23.09 4.368-2.837 2.837-10.939 7.635-16.225 4.992-9.762-4.88-25.956-17.357-18.098-33.074 3.243-6.486 9.678-8.747 12.482-14.354 1.213-2.426 18.721-4.368 18.721-4.368l-17.473-5.616s31.04-3.282 33.698-.625c1.438 1.438-13.712 20.274-16.849 21.842-.861.431 1.248-9.985 1.248-9.985s-32.316 15.113-19.345 28.083c13.238 13.237 36.886-.759 43.683-14.353 14.122-28.245-19.679-35.474-34.947-40.564-5.622-1.874-26.21 3.256-26.21-2.496" stroke="#000" fill="#ffb300"/></svg>

<svg class="tails" width="86" height="380" viewBox="202.71499633789062 584.406982421875 163.34844970703125 380.0480041503906" preserveAspectRatio="xMidYMid meet" xmlns="http://www.w3.org/2000/svg">
  <defs id="svgEditorDefs">
    <path id="svgEditorClosePathDefs" class="lines" fill="black" style="stroke-width: 0px; stroke: none;"/>
  </defs>
  <path d="M 272.609 769.751 C 291.412 769.751 313.213 766.67 329.398 782.856 C 333.123 786.581 332.818 796.562 335.014 800.953 C 337.72 806.364 338.773 814.653 336.262 819.675 C 332.936 826.327 330.374 834.924 324.405 840.893 C 321.331 843.967 305.706 840.87 301.315 845.261 C 298.478 848.098 290.376 852.896 285.09 850.253 C 275.328 845.373 259.134 832.896 266.992 817.179 C 270.235 810.693 276.67 808.432 279.474 802.825 C 280.687 800.399 298.195 798.457 298.195 798.457 C 298.195 798.457 280.722 792.841 280.722 792.841 C 280.722 792.841 311.762 789.559 314.42 792.216 C 315.858 793.654 300.708 812.49 297.571 814.058 C 296.71 814.489 298.819 804.073 298.819 804.073 C 298.819 804.073 266.503 819.186 279.474 832.156 C 292.712 845.393 316.36 831.397 323.157 817.803 C 337.279 789.558 303.478 782.329 288.21 777.239 C 282.588 775.365 262 780.495 262 774.743" style="stroke: rgb(0, 0, 0); fill: rgb(255, 179, 0);"/>
</svg>
